assets/img/hero-logo-2.svg

<svg width="427" height="110" viewBox="0 0 427 110" fill="none" xmlns="http://www.w3.org/2000/svg">
<path d="M24.2104 85.4548H38.1499C54.6652 85.4548 68.1502 75.9093 68.1502 54.394C68.1502 32.8787 54.6652 23.1816 38.1499 23.1816H24.2104V85.4548ZM39.059 108.031H0.270874V0.605713H39.2106C71.4835 0.605713 93.1504 21.2119 93.1504 54.394C93.1504 87.5761 71.4835 108.031 39.059 108.031Z" fill="black"/>
<path d="M178.391 108.031H110.209V0.605713H178.24V23.1816H134.149V43.6363H174.149V64.6971H134.149V85.3033H178.391V108.031Z" fill="black"/>
<path d="M241.405 76.2123L267.012 0.605713H292.466L253.224 108.031H228.527L189.132 0.605713H215.496L241.405 76.2123Z" fill="black"/>
<path d="M284.011 93.7882C284.011 85.3033 290.981 78.3336 299.466 78.3336C307.951 78.3336 315.072 85.3033 315.072 93.7882C315.072 102.122 307.951 109.394 299.466 109.394C290.981 109.394 284.011 102.122 284.011 93.7882Z" fill="black"/>
<path d="M426.697 0.605713L392.151 54.5455L427 108.031H397.909L376.697 73.182L355.636 108.031H327.454L362.151 54.2425L327.454 0.605713H356.242L377.454 35.4545L398.666 0.605713H426.697Z" fill="#7000FF"/>
</svg>

<svg width="427" height="110" fill="none" xmlns="http://www.w3.org/2000/svg"><path d="M24.21 85.455h13.94c16.515 0 30-9.546 30-31.061s-13.485-31.212-30-31.212H24.21v62.273ZM39.06 108.03H.271V.606h38.94c32.273 0 53.94 20.606 53.94 53.788 0 33.182-21.667 53.637-54.092 53.637ZM178.391 108.031h-68.182V.606h68.031v22.576h-44.091v20.454h40v21.061h-40v20.606h44.242v22.728ZM241.405 76.212 267.012.606h25.454L253.224 108.03h-24.697L189.132.606h26.364l25.909 75.606ZM284.011 93.788c0-8.485 6.97-15.454 15.455-15.454s15.606 6.97 15.606 15.454c0 8.334-7.121 15.606-15.606 15.606s-15.455-7.272-15.455-15.606Z" fill="#000"/><path d="m426.697.606-34.546 53.94L427 108.03h-29.091l-21.212-34.849-21.061 34.849h-28.182l34.697-53.789L327.454.606h28.788l21.212 34.849L398.666.605h28.031Z" fill="#7000FF"/></svg>
